X:1
T:Title
%%score { 1 | ( 2 3 ) }
L:1/8
Q:1/4=90
M:6/8
K:Eb
V:1 treble nm="Grand Piano"
V:2 bass 
V:3 bass 
V:1
 [B,GB]>[B,FA][B,EG] [B,EG][B,FA][B,GB] | [Ec]3 [EB]3 | [FA]>[EG][FA] [DFB]2 [B,FA] | [B,EG]6 | %4
w: Flora~Hamilton~Cassel * * * * *||||
 [B,GB]>[B,FA][B,EG] [B,EG][B,FA][B,GB] | [Ae]2 [Ad] [Ac]3 | [=Ac]>[Ad][Ae] dec |[M:5/8] B-B- B3 | %8
w: ||||
[M:3/16] B3/2 |[M:3/4] [Ge]>[Bd] [Ac] [GB]2 [_Gc] | [GB]6 | [Ge]>[Bd] [Ac] [GB]2 [EG] | %12
w: ||||
 [DF]4- [DF][DF] | G>G GA- A/A/A | B>B B c2 e | F>G A [EG]2 [B,F] | [B,E]6 | [DF][DF] z2 z2 | %18
w: ||||||
 GG z2 z2 | =A>A AA Bc |[M:13/16] [DB]/-[DB]/-[DB]/-[DB]/-[DB]/-[DB]/-[DB]-<[DB][AB]3/2 | %21
w: |||
[M:3/4] [Ge]>[Bd] [Ac] [GB]2 [_Gc] | [GB]6 | [Ge]>[Bd] [Ac] [GB]2 [EG] | [DF]4- [DF][DF] | %25
w: ||||
 G>G GA- A/A/A | B>B B c2 e | F>G A [EG]2 F |[M:7/4] E6 z2 z2 z4 |] %29
w: ||||
V:2
 E,>E,E, E,E,E, | [E,A,]3 [E,G,]3 | [B,,B,]>[B,,B,][B,,B,] B,,C,D, | E,6 | E,>E,E, E,E,E, | %5
 [E,C]2 [E,D] [E,E]3 | z3 .[F,F]3[K:treble] |[M:5/8] [B,DF]-[B,DF]- [B,DF]3 |[M:3/16] [B,DA]3/2 | %9
[M:3/4][K:bass] [E,B,]>[E,B,] [E,B,] [E,B,]2 [E,=A,] | [E,B,]6 | %11
 [E,B,]>[E,B,] [E,B,] [E,B,]2 [E,B,] | [B,,B,]4- [B,,B,][B,,B,] | %13
 [E,B,E]>[E,B,E] [E,B,E][F,B,D]- [F,B,D]/[F,B,D]/[F,B,D] | E>E [G,B,E] [A,E]2 [A,CE] | %15
 [A,B,D]>[G,B,D] [F,B,D] [B,,B,]2 [B,,A,] | [E,G,]6 | [B,,B,][B,,B,] z2 z2 | [E,B,E][E,B,E] z2 z2 | %19
 [F,CE]>[F,CE] [F,CE][CE] [B,D][F,=A,E] | %20
[M:13/16] [B,,B,]/-[B,,B,]/-[B,,B,]/-[B,,B,]/-[B,,B,]/-[B,,B,]/-[B,,B,]-<[B,,B,][F,B,]3/2 | %21
[M:3/4] [E,B,]>[E,B,] [E,B,] [E,B,]2 [E,=A,] | [E,B,]6 | [E,B,]>[E,B,] [E,B,] [E,B,]2 [E,B,] | %24
 [B,,B,]4- [B,,B,][B,,B,] | [E,B,E]>[E,B,E] [E,B,E][F,B,D]- [F,B,D]/[F,B,D]/[F,B,D] | %26
 E>E [G,B,E] [A,E]2 [A,CE] | [A,B,D]>[G,B,D] [F,B,D] [B,,B,]2 [B,,A,B,] | %28
[M:7/4] [E,G,B,]6 z2 z2 z4 |] %29
V:3
 x6 | x6 | x6 | x6 | x6 | x6 | [F,E]>[F,D][F,C] B,=A,[K:treble][F,EF] |[M:5/8] x5 |[M:3/16] x3/2 | %9
[M:3/4][K:bass] x6 | x6 | x6 | x6 | x6 | [G,B,]2 z2 z2 | x6 | x6 | x6 | x6 | z2 z .F,3 | %20
[M:13/16] x13/2 |[M:3/4] x6 | x6 | x6 | x6 | x6 | [G,B,]2 z2 z2 | x6 |[M:7/4] x14 |] %29

